X: 1451
T: Nedir Bu İşveli Edâ
C: Selahattin İçli
O: Turkey
F: http://compmusic.upf.edu/node/140
N: karcigar--sarki--duyek--nedir_bu--selahattin_icli
N: makam= karcigar
N: form= sarki
N: usul= duyek = 8/4
M: 8/4
L: 1/16
K: C _2/4B _3/4e ^3/4f 
Q: 1/4=138
%%MIDI tuningsystem comma53
d2 d4 d2 d4 d2 d2  | d2 e6 dc Bc d4  | \
w:  Ne dir  bu  iş ve li   |  e dâ  câ *  *  *  nım   | 
z4 c2 cB B2 {c}BA A4  | 
w:  ye ter  *  ar *  *  *  tık   | 
g4 g2 gf fe ed d2 cB  | c2 d4 d2 d4 d2 d2  | \
w:  ah  ye ter  *  ar *  *  *  tık    |  Ne dir  bu  iş ve li   | 
d2 e6 dc Bc d4  | 
w:  e dâ  câ *  *  *  nım   | 
z4 c2 cB B2 {c}BA A4  | a3g g2 gf fe ed d4  | \
w:  ye ter  *  ar *  *  *  tık   |  ah  *  ye ter  *  ar *  *  *  tık    | 
dc BA GA Bc de de dc Bc  | 
w:  SAZ  | 
fg2g g3/2f/ ga fe ed d4  | g2 g4 a2 a4 a2 a2  | \
w:   |  Ce fâ ya  kal ma dı   | 
_1/4e2 _2/4e2 d2 _3/4e2 dc cB c4  | 
w:  *  ben *  de  tâ *  *  *  kat   | 
c2 c4 c2 c2 c4 z2  | e4 e2 ed dc cB c4  | \
w:  *  yap ma  gü zel   |  gam  ye ter  *  ar *  *  *  tık    | 
g2 g4 a2 a4 a2 a2  | 
w:  Ce fâ ya  kal ma dı   | 
_1/4e2 _2/4e2 d2 _3/4e2 dc cB c4  | \
w:  *  ben *  de  tâ *  *  *  kat   | 
c2 d4 c2 B2 A4 z2  | d4 A2 A2 GA GA A4  | 
w:  *  yap ma  gü zel   |  gam  ye ter  ar *  *  *  tık    | 
ag fe de fg a_3/4b ab ag fg  | c'd'2d' d'c' d'=e' c'b ba a2 c'2  | 
w:  SAZ  |   | 
c'2 c'4 c'2 c'4 c'2 c'b  | d'3c' c'2 c'b ba ba a4  | \
w:  Ha zâ na  er me de   |  ömr_ *  ü  ha *  zîn   | 
z4 c'2 c'2 c'2 b2 b2 a2  | 
w:  he der  et *  me   | 
d'3c' c'2 c'b ba ba a2 gf  | g2 g4 a2 a4 a2 a2  | \
w:  gül  *  ye ter  *  ar *  *  *  tık    |  Ha zâ na  er me de   | 
d4 d2 _b2 a2 g2 f2 _2/4ed  | 
w:  ömr_ ü  ha zîn   | 
d2 z2 d2 e2 dc Bc d4  | g4 g2 gf fe ed d4  | \
w:  *  he der  et *  *  *  me   |  gül  ye ter  *  ar *  *  *  tık    | 
dc BA GA Bc de de dc Bc  | 
w:  SAZ  | 
fg2g g3/2f/ ga fe ed d2 a2  | g2 g4 a2 a4 a2 a2  | \
w:   |  Ce fâ ya  kal ma dı   | 
_1/4e2 _2/4e2 d2 _3/4e2 dc cB c4  | 
w:  *  ben *  de  tâ *  *  *  kat   | 
c2 c4 c2 c2 c4 z2  | e4 e2 ed dc cB c4  | \
w:  *  yap ma  gü zel   |  gam  ye ter  *  ar *  *  *  tık    | 
g2 g4 a2 a4 a2 a2  | 
w:  Ce fâ ya  kal ma dı   | 
_1/4e2 _2/4e2 d2 _3/4e2 dc cB c4  | \
w:  *  ben *  de  tâ *  *  *  kat   | 
c2 d4 c2 B2 A4 z2  | d4 A2 A2 GA GA A4  | 
w:  *  yap ma  gü zel   |  gam  ye ter  ar *  *  *  tık    | 
|


